X:25
T: Khupa jig #2
O:klezmer
D: Abe Schwartz "Masters of Klezmer Music" v.1 (Global Village 126)
Z: John Chambers <jc@trillian.mit.edu>
M: 6/8
L: 1/8
K: Am
|: E \
| "Am"EA^G "E7"GBA | "Am"AcB "E7"Bdc | "Am"ced "Dm"dfe | "Am"e>dc/d/ e3 |
| "Dm"dfB "(E7)"BdB | "Am"ceA AcA | "E7"e^Gd Tc2B | "Am"BcA- A2 :|
|: (3G/A/B/ \
| "C"Tc3- cGe | Tc3- cGe | cGe cGe | cGe f>ed/c/ |
| "G7"TB3- BGd | TB3- B2g | gfe edc | "C"dec- c2 :|
|: E \
| "Am"e2c "E7"d2B | "Am"c2A "E7"B2E | "Am"A^GA cBA | "E"B>A^G/F/ E3 |
| "Dm"fed "Am"edc | "E7"dcB "Am"cBA | "E7"edc  cBA | "Am"BcA- A2 :|





